X: 1
T: Eklundapolska nr 3
C: Viksta-Lasse (Uppland)
R: polska (16th-note), sl\"angpolska
S: Fiddle Hell Online 2020-11-05
S: Fiddle Hell Online 2022-4-2 handout for Bronwyn Bird's Swedish Jam
Z: 2020 John Chambers <jc:trillian.mit.edu>
M: 3/4
L: 1/16
K: G
"^A"|: g2fg b2g2 d2B2 | cBcd egec A2c2 | B2AB cdcA BcBG |[1,3 A2d2 d8 :|[2,4 ABAF G8 :|
"^B"|: B3B c2c2 B2B2 | A2d2 d8 |[1,3 B3B c2c2 B2B2 | ABAF D8 :|[2,4 G2AB cdcA BcBG | ABAF G8 :|
